icons/mobile/24/svg/help-circle-fill-24.svg

<svg width="24" height="24" viewBox="0 0 24 24" fill="none" xmlns="http://www.w3.org/2000/svg">
<path fill-rule="evenodd" clip-rule="evenodd" d="M12 2C17.514 2 22 6.486 22 12C22 17.514 17.514 22 12 22C6.486 22 2 17.514 2 12C2 6.486 6.486 2 12 2ZM12.126 15.75C11.5738 15.7501 11.126 16.1978 11.126 16.75C11.126 17.3022 11.5738 17.7499 12.126 17.75C12.6781 17.7498 13.126 17.3022 13.126 16.75C13.126 16.1978 12.6781 15.7502 12.126 15.75ZM12.1221 6.5C10.5772 6.5001 9.23695 7.65096 9.00488 9.1748C8.93188 9.6518 9.26029 10.0989 9.73828 10.1719C10.214 10.2456 10.6622 9.91711 10.7354 9.43945C10.8384 8.76255 11.4342 8.25108 12.1221 8.25098C12.8959 8.25116 13.5254 8.88141 13.5254 9.6543C13.5253 10.1961 13.2076 10.6948 12.7158 10.9248C11.81 11.3489 11.248 12.2072 11.25 13.1641V13.4922C11.2501 13.975 11.6422 14.368 12.125 14.3682L12.126 14.3662C12.6087 14.365 12.9999 13.973 12.999 13.4902V13.1611C12.998 12.8922 13.1741 12.6418 13.458 12.5078C14.5618 11.9918 15.2753 10.8711 15.2754 9.65332C15.2754 7.91543 13.8599 6.50019 12.1221 6.5Z" fill="black"/>
</svg>

<!-- This Source Code Form is subject to the terms of the Mozilla Public
   - License, v. 2.0. If a copy of the MPL was not distributed with this
   - file, You can obtain one at http://mozilla.org/MPL/2.0/. -->
<svg xmlns="http://www.w3.org/2000/svg" width="24" height="24" fill="none" viewBox="0 0 24 24">
    <path fill="#000" fill-rule="evenodd" d="M12 2c5.514 0 10 4.486 10 10s-4.486 10-10 10S2 17.514 2 12 6.486 2 12 2m.126 13.75a1 1 0 1 0 0 2 1 1 0 0 0 0-2m-.004-9.25a3.17 3.17 0 0 0-3.117 2.675.876.876 0 0 0 1.73.264 1.41 1.41 0 0 1 1.387-1.188c.774 0 1.403.63 1.403 1.403 0 .542-.317 1.04-.81 1.27-.905.425-1.467 1.283-1.465 2.24v.328c0 .483.392.876.875.876l.001-.002a.875.875 0 0 0 .873-.876v-.329c-.001-.269.175-.52.459-.653a3.16 3.16 0 0 0 1.817-2.855A3.16 3.16 0 0 0 12.122 6.5" clip-rule="evenodd" />
</svg>
